X:1
T:Near to the Heart of God
T:Cleland Boyd McAfee, 1903
T:Near to the Heart of God
T:Public Domain
T:Public Domain
C:Cleland Boyd McAfee, 1903
Z:Public Domain
%%score ( 1 2 ) ( 3 4 )
L:1/8
M:4/4
K:D
V:1 treble 
V:2 treble 
V:3 bass 
V:4 bass 
V:1
 [DF]2 | [DF]3 [D^E] [DF]2 [^B,F]2 | [CG]3 [^B,F] [CG]4 | [CE]2 [CE][CE] [CA]2 [CG]2 | %4
w: 1.~There|is a place of|qui- et rest,|Near to the heart of|
w: 2.~There|is a place of|com- fort sweet,|Near to the heart of|
w: 3.~There|is a place of|full re- lease,|Near to the heart of|
 [DF]6 [DF]2 | [DF]3 [D^E] [DF]2 [^B,F]2 | [CG]3 [^B,F] [CG]4 | [CE]2 [CA][CG] [DF]2 [CE]2 | D6 || %9
w: God. A|place where sin can-|not mo- lest,|Near to the heart of|God.|
w: God. A|place where we our|Sav- ior meet,|Near to the heart of|God.|
w: God. A|place where all is|joy and peace,|Near to the heart of|God.|
"^Refrain" D2 | [DB]3 [DB] [DG]2 [GB]2 | [GB]4 [FA]4 | [FA]2 [EG][DF] [EG]2 [CA]2 | [DF]6 D2 | %14
w: |||||
w: Je-|blest Re- deem- er,|Sent from|the heart of God, Hold|us who|
w: |||||
 [DB]3 [DB] [Dc]2 [DB]2 | [DA]4 [DF]4 | [CE]2 [CF][CG] [CF]2 (CA,) | [A,D]6 |] %18
w: ||||
w: be- fore Thee Near|to the|heart of God. * * *||
w: ||||
V:2
 x2 | x8 | x8 | x8 | x8 | x8 | x8 | x8 | D6 || D2 | x8 | x8 | x8 | x6 D2 | x8 | x8 | x6 E2 | x6 |] %18
w: ||||||||||||||||||
w: ||||||||O|sus,||||wait|||||
V:3
 [D,A,]2 | [D,A,]3 [D,^G,] [D,A,]2 [^D,A,]2 | [E,A,]3 [^D,A,] [E,A,]4 | %3
 [A,,A,]2 [A,,A,][A,,A,] [A,,E,]2 [A,,A,]2 | [D,A,]6 [D,A,]2 | [D,A,]3 [D,^G,] [D,A,]2 [^D,A,]2 | %6
 [E,A,]3 [^D,A,] [E,A,]4 | [A,,A,]2 [A,,A,][A,,A,] [A,,A,]2 [A,,G,]2 | [D,F,]6 || [D,F,]2 | %10
 G,3 G, [G,B,]2 [G,D]2 | [D,D]4 [D,D]4 | [A,D]2 A,A, [A,C]2 A,2 | [D,A,]6 [D,F,]2 | %14
 G,3 G, [G,A,]2 G,2 | [D,F,]4 [D,A,]4 | [A,,G,]2 [A,,F,][A,,E,] [A,,A,]2 [A,,G,]2 | [D,F,]6 |] %18
V:4
 x2 | x8 | x8 | x8 | x8 | x8 | x8 | x8 | x6 || x2 | G,3 G, x4 | x8 | x2 A,A, x A,2 x | x8 | %14
 G,3 G, x G,2 x | x8 | x8 | x6 |] %18

